src/assets/filled/MusicSquare.svg

<svg width="24" height="24" viewBox="0 0 24 24"  xmlns="http://www.w3.org/2000/svg">
<path d="M14.5399 13.6699C14.1799 13.6699 13.8899 13.9599 13.8899 14.3199C13.8899 14.6799 14.1799 14.9699 14.5399 14.9699C14.8999 14.9699 15.1899 14.6799 15.1899 14.3199C15.1799 13.9599 14.8899 13.6699 14.5399 13.6699Z" />
<path d="M9.05991 14.6599C8.69991 14.6599 8.40991 14.9499 8.40991 15.3099C8.40991 15.6699 8.69991 15.9599 9.05991 15.9599C9.41991 15.9599 9.70991 15.6699 9.70991 15.3099C9.70991 14.9499 9.41991 14.6599 9.05991 14.6599Z" />
<path d="M16.19 2H7.81C4.17 2 2 4.17 2 7.81V16.18C2 19.83 4.17 22 7.81 22H16.18C19.82 22 21.99 19.83 21.99 16.19V7.81C22 4.17 19.83 2 16.19 2ZM16.88 9.55V14.31C16.88 15.6 15.83 16.65 14.54 16.65C13.25 16.65 12.2 15.6 12.2 14.31C12.2 13.02 13.25 11.97 14.54 11.97C14.77 11.97 14.98 12.01 15.19 12.07V10.65L11.41 11.68V15.3C11.41 15.31 11.4 15.32 11.4 15.33C11.39 16.61 10.34 17.64 9.06 17.64C7.77 17.64 6.72 16.59 6.72 15.3C6.72 14.01 7.77 12.96 9.06 12.96C9.29 12.96 9.5 13 9.71 13.06V11.03V9.29C9.71 8.32 10.31 7.53 11.25 7.28L14.24 6.46C15.2 6.2 15.8 6.45 16.14 6.71C16.47 6.97 16.88 7.48 16.88 8.48V9.55Z" />
</svg>

<?xml version="1.0" encoding="UTF-8"?>
<svg width="24" height="24" viewBox="0 0 24 24" xmlns="http://www.w3.org/2000/svg">
 <path d="m14.54 13.67c-0.36 0-0.65 0.29-0.65 0.65s0.29 0.65 0.65 0.65 0.65-0.29 0.65-0.65c-0.01-0.36-0.3-0.65-0.65-0.65z"/>
 <path d="m9.0599 14.66c-0.36 0-0.65 0.29-0.65 0.65s0.29 0.65 0.65 0.65 0.65-0.29 0.65-0.65-0.29-0.65-0.65-0.65z"/>
 <path d="m16.19 2h-8.38c-3.64 0-5.81 2.17-5.81 5.81v8.37c0 3.65 2.17 5.82 5.81 5.82h8.37c3.64 0 5.81-2.17 5.81-5.81v-8.38c0.01-3.64-2.16-5.81-5.8-5.81zm0.69 7.55v4.76c0 1.29-1.05 2.34-2.34 2.34s-2.34-1.05-2.34-2.34 1.05-2.34 2.34-2.34c0.23 0 0.44 0.04 0.65 0.1v-1.42l-3.78 1.03v3.62c0 0.01-0.01 0.02-0.01 0.03-0.01 1.28-1.06 2.31-2.34 2.31-1.29 0-2.34-1.05-2.34-2.34s1.05-2.34 2.34-2.34c0.23 0 0.44 0.04 0.65 0.1v-3.77c0-0.97 0.6-1.76 1.54-2.01l2.99-0.82c0.96-0.26 1.56-0.01 1.9 0.25 0.33 0.26 0.74 0.77 0.74 1.77v1.07z"/>
</svg>
